assets/Mobile phone with arrow/Flat/mobile_phone_with_arrow_flat.svg

<svg width="32" height="32" viewBox="0 0 32 32" fill="none" xmlns="http://www.w3.org/2000/svg">
<path d="M13.5 2C11.8431 2 10.5 3.34315 10.5 5V7H29.5V5C29.5 3.34315 28.1569 2 26.5 2H13.5Z" fill="#7167A4"/>
<path d="M13.5 30C11.8431 30 10.5 28.6569 10.5 27V25H29.5V27C29.5 28.6569 28.1569 30 26.5 30H13.5Z" fill="#7167A4"/>
<path d="M10.5 6H29.5V26H10.5V6Z" fill="#321B41"/>
<path d="M18 10C18 9.44772 18.4477 9 19 9H21C21.5523 9 22 9.44772 22 10V12C22 12.5523 21.5523 13 21 13H19C18.4477 13 18 12.5523 18 12V10ZM13 15C13 14.4477 13.4477 14 14 14H16C16.5523 14 17 14.4477 17 15V17C17 17.5523 16.5523 18 16 18H14C13.4477 18 13 17.5523 13 17V15ZM19 19C18.4477 19 18 19.4477 18 20V22C18 22.5523 18.4477 23 19 23H21C21.5523 23 22 22.5523 22 22V20C22 19.4477 21.5523 19 21 19H19Z" fill="#00A6ED"/>
<path d="M13 10C13 9.44772 13.4477 9 14 9H16C16.5523 9 17 9.44772 17 10V12C17 12.5523 16.5523 13 16 13H14C13.4477 13 13 12.5523 13 12V10ZM13 20C13 19.4477 13.4477 19 14 19H16C16.5523 19 17 19.4477 17 20V22C17 22.5523 16.5523 23 16 23H14C13.4477 23 13 22.5523 13 22V20ZM24 14C23.4477 14 23 14.4477 23 15V17C23 17.5523 23.4477 18 24 18H26C26.5523 18 27 17.5523 27 17V15C27 14.4477 26.5523 14 26 14H24Z" fill="#FF822D"/>
<path d="M11.58 15.5801L7.03999 11.4501C6.69999 11.1401 6.17 11.3801 6.17 11.8401V13.6501C6.17 13.9401 5.93999 14.1701 5.64999 14.1701H3.75999C3.33999 14.1701 3 14.5101 3 14.9301V17.0101C3 17.4301 3.33999 17.7701 3.75999 17.7701H5.64999C5.93999 17.7701 6.17 18.0001 6.17 18.2901V20.1001C6.17 20.5501 6.70999 20.7901 7.03999 20.4901L11.58 16.3601C11.81 16.1501 11.81 15.7901 11.58 15.5801Z" fill="#00A6ED"/>
<path d="M23 10C23 9.44772 23.4477 9 24 9H26C26.5523 9 27 9.44772 27 10V12C27 12.5523 26.5523 13 26 13H24C23.4477 13 23 12.5523 23 12V10ZM18 15C18 14.4477 18.4477 14 19 14H21C21.5523 14 22 14.4477 22 15V17C22 17.5523 21.5523 18 21 18H19C18.4477 18 18 17.5523 18 17V15ZM24 19C23.4477 19 23 19.4477 23 20V22C23 22.5523 23.4477 23 24 23H26C26.5523 23 27 22.5523 27 22V20C27 19.4477 26.5523 19 26 19H24Z" fill="#FCD53F"/>
</svg>

<svg xmlns="http://www.w3.org/2000/svg" width="32" height="32" fill="none"><path fill="#7167A4" d="M13.5 2a3 3 0 0 0-3 3v2h19V5a3 3 0 0 0-3-3h-13ZM13.5 30a3 3 0 0 1-3-3v-2h19v2a3 3 0 0 1-3 3h-13Z"/><path fill="#321B41" d="M10.5 6h19v20h-19V6Z"/><path fill="#00A6ED" d="M18 10a1 1 0 0 1 1-1h2a1 1 0 0 1 1 1v2a1 1 0 0 1-1 1h-2a1 1 0 0 1-1-1v-2Zm-5 5a1 1 0 0 1 1-1h2a1 1 0 0 1 1 1v2a1 1 0 0 1-1 1h-2a1 1 0 0 1-1-1v-2Zm6 4a1 1 0 0 0-1 1v2a1 1 0 0 0 1 1h2a1 1 0 0 0 1-1v-2a1 1 0 0 0-1-1h-2Z"/><path fill="#FF822D" d="M13 10a1 1 0 0 1 1-1h2a1 1 0 0 1 1 1v2a1 1 0 0 1-1 1h-2a1 1 0 0 1-1-1v-2Zm0 10a1 1 0 0 1 1-1h2a1 1 0 0 1 1 1v2a1 1 0 0 1-1 1h-2a1 1 0 0 1-1-1v-2Zm11-6a1 1 0 0 0-1 1v2a1 1 0 0 0 1 1h2a1 1 0 0 0 1-1v-2a1 1 0 0 0-1-1h-2Z"/><path fill="#00A6ED" d="m11.58 15.58-4.54-4.13a.518.518 0 0 0-.87.39v1.81c0 .29-.23.52-.52.52H3.76a.76.76 0 0 0-.76.76v2.08c0 .42.34.76.76.76h1.89c.29 0 .52.23.52.52v1.81c0 .45.54.69.87.39l4.54-4.13c.23-.21.23-.57 0-.78Z"/><path fill="#FCD53F" d="M23 10a1 1 0 0 1 1-1h2a1 1 0 0 1 1 1v2a1 1 0 0 1-1 1h-2a1 1 0 0 1-1-1v-2Zm-5 5a1 1 0 0 1 1-1h2a1 1 0 0 1 1 1v2a1 1 0 0 1-1 1h-2a1 1 0 0 1-1-1v-2Zm6 4a1 1 0 0 0-1 1v2a1 1 0 0 0 1 1h2a1 1 0 0 0 1-1v-2a1 1 0 0 0-1-1h-2Z"/></svg>
